source/images/icon-golive.svg

<svg height="65" viewBox="0 0 120 65" width="120" xmlns="http://www.w3.org/2000/svg"><g fill="#0093c9" fill-rule="evenodd"><path d="m56.0778783 43.4874113-.5373913-.3658871s-10.1989566-6.546129-13.4671305 20.4383064l.0709565.0482259c23.7547827-13.0094355 13.9335653-20.1206452 13.9335653-20.1206452m-8.7944348 12.7095968-.0386087-.0262097c2.4469565-15.2393549 7.8073043-11.8226613 7.8073043-11.8226613l.2838261.1929032s5.1401739 3.742742-8.0525217 11.6559678"/><path d="m81.3517565 23.3110968c5.7391305-9.3285484 3.2911305-22.33693551 3.1085218-23.25427422l.024-.03564516s-.0166957.00629032-.0302609.00524193c-.0041739-.01153225-.0073044-.02620967-.0073044-.02620967l-.0187826.03459677c-.9193043.16669355-13.8563478 2.6817742-20.3634782 11.48612905-.3610435.4906451-.7189565 1.0001613-1.0706087 1.5275l17.3405217 11.8268548c.3526957-.5220968.6970435-1.0452419 1.0173913-1.5641935m-6.7252174-8.8787903c-1.5860869-1.0808871-1.9993043-3.2479033-.9245217-4.83725811 1.0758261-1.59354839 3.2316522-2.00870968 4.8156522-.92467742 1.5850434 1.08088709 1.9972174 3.24266133.9213913 4.83620963-1.0737392 1.5893549-3.2295652 2.0045162-4.8125218.9257259"/><path d="m72.477287 34.3485161c2.323826-2.432258 4.7113043-5.1507258 6.741913-7.8995967l-17.2726957-11.7754839c-1.7937391 2.906129-3.4257391 6.1393548-4.8166956 9.2079839-12.7627826-2.2194355-14.4354783 15.5444354-14.4354783 15.5444354l1.6455653 1.0054033c4.7373913-9.8254839 9.6793043-9.1031452 9.6793043-9.1031452l.1095652-.2379839c-1.2020869 3.1273387-1.8855652 5.2440323-1.8855652 5.2440323l5.2445217 3.575.0323479.0220161 5.2424347 3.5791936s1.7071305-1.4237097 4.1582609-3.6997581l-.1826087.1876613s2.4939131 4.3529032-4.8448695 12.4034677l1.5370434 1.1658065s15.8128696-8.1197581 9.0469566-19.2190323"/><path d="m30.5939478 53.8494597c.3433044-.7265323.5332174-1.500242.5332174-2.3054032 0-4.1547581-4.9481739-7.5232259-11.0535652-7.5232259-5.3864348 0-9.8671304 2.6230646-10.84904348 6.0942742-.06886956-.0010483-.13565217-.0062903-.20452174-.0062903-4.98156521 0-9.01982608 2.5622581-9.01982608 5.7231452s4.03826087 5.7231451 9.01982608 5.7231451c2.44382612 0 4.65600002-.6185483 6.28069562-1.619758 1.3909566 2.1166935 5.9645218 3.6725 11.4052174 3.6725 6.5446957 0 11.8497392-2.247742 11.8497392-5.0207258 0-2.1942742-3.3297392-4.0551613-7.9617392-4.7376613"/><path d="m109.897357 56.2279355c.413217-.6437097.641739-1.3283065.641739-2.0401613 0-3.6777419-5.952-6.6583065-13.2939134-6.6583065-6.477913 0-11.8664348 2.3221775-13.0466087 5.3939517-.0834782-.0010484-.1638261-.0062904-.2462609-.0062904-5.9916521 0-10.848 2.2676613-10.848 5.0647581 0 2.7981452 4.8563479 5.0658064 10.848 5.0658064 2.9384348 0 5.5993044-.5483064 7.5526957-1.4341935 1.6737391 1.8734677 7.1728696 3.25 13.7165213 3.25 7.870957 0 14.250783-1.9887903 14.250783-4.4420161 0-1.9426613-4.00487-3.5896774-9.574956-4.1935484"/><path d="m101.518017 17.5904677 2.405218-1.2706451-.460174 2.6912097 1.946087 1.9049193-2.689044.3920968-1.202087 2.4479839-1.202087-2.4479839-2.689043-.3920968 1.9460869-1.9049193-.4601739-2.6912097z"/><path d="m32.3655652 5.69179839 2.2236522-1.17419355-.4246957 2.48677419 1.7979131 1.76233871-2.4855652.36274194-1.1113044 2.26241932-1.1113043-2.26241932-2.4855652-.36274194 1.797913-1.76233871-.4246957-2.48677419z"/><path d="m25.584 27.2924516 1.7029565-.8995161-.3255652 1.9049193 1.3773913 1.3492742-1.9033043.2778226-.8514783 1.7329839-.8514783-1.7329839-1.9033043-.2778226 1.3773913-1.3492742-.3255652-1.9049193z"/><path d="m113.190887 32.3871935 1.702956-.8995161-.325565 1.9049194 1.377392 1.3492742-1.903305.2778225-.851478 1.7329839-.851478-1.7329839-1.903305-.2778225 1.377392-1.3492742-.325566-1.9049194z"/></g></svg>

<?xml version="1.0" encoding="UTF-8"?>
<svg width="120px" height="65px" viewBox="0 0 120 65" version="1.1" xmlns="http://www.w3.org/2000/svg" xmlns:xlink="http://www.w3.org/1999/xlink">
    <!-- Generator: Sketch 41.1 (35376) - https://www.sketchapp.com -->
    <title>icon-golive</title>
    <desc>Created with Sketch.</desc>
    <defs></defs>
    <g id="Updated-HOME" stroke="none" stroke-width="1" fill="none" fill-rule="evenodd">
        <g id="home-updated" transform="translate(-1075.000000, -335.000000)" fill="#0093C9">
            <g id="Go-Live" transform="translate(944.000000, 280.000000)">
                <g id="icon-golive" transform="translate(131.000000, 55.000000)">
                    <path d="M56.0778783,43.4874113 L55.540487,43.1215242 C55.540487,43.1215242 45.3415304,36.5753952 42.0733565,63.5598306 L42.144313,63.6080565 C65.8990957,50.598621 56.0778783,43.4874113 56.0778783,43.4874113 M47.2834435,56.1970081 L47.2448348,56.1707984 C49.6917913,40.9314435 55.0521391,44.3481371 55.0521391,44.3481371 L55.3359652,44.5410403 C55.3359652,44.5410403 60.4761391,48.2837823 47.2834435,56.1970081" id="Fill-1"></path>
                    <path d="M81.3517565,23.3110968 C87.090887,13.9825484 84.642887,0.97416129 84.4602783,0.0568225806 L84.4842783,0.0211774194 C84.4842783,0.0211774194 84.4675826,0.0274677419 84.4540174,0.0264193548 C84.4498435,0.0148870968 84.446713,0.000209677419 84.446713,0.000209677419 L84.4279304,0.0348064516 C83.5086261,0.2015 70.5715826,2.71658065 64.0644522,11.5209355 C63.7034087,12.0115806 63.3454957,12.5210968 62.9938435,13.0484355 L80.3343652,24.8752903 C80.6870609,24.3531935 81.0314087,23.8300484 81.3517565,23.3110968 M74.6265391,14.4323065 C73.0404522,13.3514194 72.6272348,11.1844032 73.7020174,9.59504839 C74.7778435,8.0015 76.9336696,7.58633871 78.5176696,8.67037097 C80.102713,9.75125806 80.514887,11.9130323 79.4390609,13.5065806 C78.3653217,15.0959355 76.2094957,15.5110968 74.6265391,14.4323065" id="Fill-3"></path>
                    <path d="M72.477287,34.3485161 C74.801113,31.9162581 77.1885913,29.1977903 79.2192,26.4489194 L61.9465043,14.6734355 C60.1527652,17.5795645 58.5207652,20.8127903 57.1298087,23.8814194 C44.3670261,21.6619839 42.6943304,39.4258548 42.6943304,39.4258548 L44.3398957,40.4312581 C49.077287,30.6057742 54.0192,31.3281129 54.0192,31.3281129 L54.1287652,31.090129 C52.9266783,34.2174677 52.2432,36.3341613 52.2432,36.3341613 L57.4877217,39.9091613 L57.5200696,39.9311774 L62.7625043,43.510371 C62.7625043,43.510371 64.4696348,42.0866613 66.9207652,39.8106129 L66.7381565,39.9982742 C66.7381565,39.9982742 69.2320696,44.3511774 61.893287,52.4017419 L63.4303304,53.5675484 C63.4303304,53.5675484 79.2432,45.4477903 72.477287,34.3485161" id="Fill-5"></path>
                    <path d="M30.5939478,53.8494597 C30.9372522,53.1229274 31.1271652,52.3492177 31.1271652,51.5440565 C31.1271652,47.3892984 26.1789913,44.0208306 20.0736,44.0208306 C14.6871652,44.0208306 10.2064696,46.6438952 9.22455652,50.1151048 C9.15568696,50.1140565 9.08890435,50.1088145 9.02003478,50.1088145 C4.03846957,50.1088145 0.000208695652,52.6710726 0.000208695652,55.8319597 C0.000208695652,58.9928468 4.03846957,61.5551048 9.02003478,61.5551048 C11.4638609,61.5551048 13.6760348,60.9365565 15.3007304,59.9353468 C16.691687,62.0520403 21.2652522,63.6078468 26.7059478,63.6078468 C33.2506435,63.6078468 38.555687,61.3601048 38.555687,58.587121 C38.555687,56.3928468 35.2259478,54.5319597 30.5939478,53.8494597" id="Fill-7"></path>
                    <path d="M109.897357,56.2279355 C110.310574,55.5842258 110.539096,54.899629 110.539096,54.1877742 C110.539096,50.5100323 104.587096,47.5294677 97.2451826,47.5294677 C90.7672696,47.5294677 85.3787478,49.8516452 84.1985739,52.9234194 C84.1150957,52.922371 84.0347478,52.917129 83.952313,52.917129 C77.9606609,52.917129 73.104313,55.1847903 73.104313,57.9818871 C73.104313,60.7800323 77.9606609,63.0476935 83.952313,63.0476935 C86.8907478,63.0476935 89.5516174,62.4993871 91.5050087,61.6135 C93.1787478,63.4869677 98.6778783,64.8635 105.22153,64.8635 C113.092487,64.8635 119.472313,62.8747097 119.472313,60.4214839 C119.472313,58.4788226 115.467443,56.8318065 109.897357,56.2279355" id="Fill-9"></path>
                    <polygon id="Fill-11" points="101.518017 17.5904677 103.923235 16.3198226 103.463061 19.0110323 105.409148 20.9159516 102.720104 21.3080484 101.518017 23.7560323 100.31593 21.3080484 97.626887 20.9159516 99.5729739 19.0110323 99.1128 16.3198226"></polygon>
                    <polygon id="Fill-13" points="32.3655652 5.69179839 34.5892174 4.51760484 34.1645217 7.00437903 35.9624348 8.76671774 33.4768696 9.12945968 32.3655652 11.391879 31.2542609 9.12945968 28.7686957 8.76671774 30.5666087 7.00437903 30.141913 4.51760484"></polygon>
                    <polygon id="Fill-15" points="25.584 27.2924516 27.2869565 26.3929355 26.9613913 28.2978548 28.3387826 29.647129 26.4354783 29.9249516 25.584 31.6579355 24.7325217 29.9249516 22.8292174 29.647129 24.2066087 28.2978548 23.8810435 26.3929355"></polygon>
                    <polygon id="Fill-17" points="113.190887 32.3871935 114.893843 31.4876774 114.568278 33.3925968 115.94567 34.741871 114.042365 35.0196935 113.190887 36.7526774 112.339409 35.0196935 110.436104 34.741871 111.813496 33.3925968 111.48793 31.4876774"></polygon>
                </g>
            </g>
        </g>
    </g>
</svg>
